X: 65
M:2/4
L:1/16
K:D
uA,2|D2FE DFAc|dcdf ecAF|GBEG FADF|GFED CEA,C|
defd ceAc|dcdB AFDF|GBEG FADF|EDCE D2:|


